X: 1
T: Mr Douglas of Springwood Park
C: Alexander Givan (1752-1803)
R: strathspey, shottish
Z: 2010 John Chambers <jc:trillian.mit.edu>
S: printed MS of unknown origin
M: C
L: 1/16
K: G
G \
| "G"D3G G3E "D7"F3G A3F | "G"G3B d3B "C"e6 f2 \
| "G"gb3 "C"e3g "G"dg3 "(Em)"B3g |1 "A7"EA3 A3G "D7"F3E F3D :|2 "Am"EA3 "D7"F3D G7 ||
d \
| "Em"eg3 g3e "D"fa3 d3f | "C"e3f g3e "G"d4 c3B \
| "Am"c3d e3c "G"Bd3 g3B | "Am"EA3 A3G "D7"F3E F3 ||
D \
| "G"D3G G3E "D7"F3G A3F | "G"G3B d3B "C"e6 f2 \
| "G"gb3 "C"e3g "G"dg3 B3g | "Am"EA3 "D7"F3D G7 |]
